src/icons/service-helm.svg

<?xml version="1.0" encoding="utf-8"?>
<!-- Generator: Adobe Illustrator 20.1.0, SVG Export Plug-In . SVG Version: 6.00 Build 0)  -->
<svg version="1.1" id="Layer_1" xmlns="http://www.w3.org/2000/svg" xmlns:xlink="http://www.w3.org/1999/xlink" x="0px" y="0px"
	 viewBox="0 0 14 14" style="enable-background:new 0 0 14 14;" xml:space="preserve">
<style type="text/css">
	.st0{fill:#277A9E;}
</style>
<title>HDL/Icon/Standard/Service/helm</title>
<desc>Created with Sketch.</desc>
<g id="Colors">
	<g id="Service-icons" transform="translate(-122.000000, -969.000000)">
		<g id="Helm_1_" transform="translate(101.000000, 952.000000)">
			<g id="HDL_x2F_Icon_x2F_Standard_x2F_Service_x2F_helm" transform="translate(21.000000, 17.000000)">
				<g id="Helm">
					<path id="Path" class="st0" d="M7.5,1.3c0,0.2,0,0.4-0.1,0.6c0,0.1,0,0.2,0.1,0.2c0.7,0.1,1.4,0.3,2,0.7c0.1,0.1,0.2,0,0.2-0.1
						c0.2-0.5,0.5-0.9,0.9-1.2c0.2-0.1,0.3-0.3,0.5-0.1c0.2,0.1,0.1,0.4,0.1,0.6c-0.1,0.5-0.4,0.9-0.8,1.2c-0.2,0.1-0.1,0.2,0,0.3
						c0.3,0.2,0.5,0.5,0.7,0.8c0.1,0.1,0.1,0.2-0.1,0.2c-0.2,0.1-0.3,0.3-0.5,0.3s-0.2-0.3-0.3-0.4c-1.7-2.1-5-2.1-6.7,0.2
						c-0.1,0.1-0.2,0.2-0.3,0l0,0C2.7,4.3,2.7,4.3,3,3.9c0.1-0.2,0.3-0.3,0.5-0.5c0.1-0.1,0.1-0.2,0-0.3C3.2,2.8,2.9,2.4,2.8,1.9
						c-0.1-0.1-0.2-0.4,0-0.5s0.4,0,0.5,0.1C3.8,1.8,4,2.2,4.2,2.6c0.1,0.1,0.1,0.2,0.3,0.1c0.6-0.4,1.2-0.6,1.9-0.6
						c0.2,0,0.2-0.1,0.2-0.2c-0.1-0.5-0.1-1,0-1.4C6.7,0.3,6.8,0,7,0c0.3,0,0.3,0.3,0.4,0.5S7.5,1,7.5,1.3z"/>
					<path id="Path_1_" class="st0" d="M9.7,11.2C9,11.6,8.4,11.9,7.6,12c-0.2,0-0.2,0.1-0.1,0.2c0.1,0.5,0.1,0.9-0.1,1.4
						C7.3,13.8,7.2,14,7,14s-0.3-0.2-0.3-0.4c-0.2-0.4-0.2-0.9-0.1-1.4c0-0.2,0-0.2-0.2-0.2c-0.7-0.1-1.4-0.3-1.9-0.6
						c-0.2-0.1-0.2,0-0.2,0.1c-0.2,0.4-0.5,0.8-0.8,1c-0.2,0.1-0.3,0.3-0.5,0.1c-0.2-0.1-0.1-0.4-0.1-0.5c0.1-0.4,0.4-0.8,0.7-1.2
						c0.1-0.1,0.1-0.2,0-0.3c-0.2-0.2-0.4-0.4-0.5-0.6C2.8,9.9,2.9,9.9,3,9.8c0.2-0.1,0.3-0.3,0.5-0.3s0.3,0.2,0.4,0.4
						c1.8,1.9,4.8,1.8,6.4-0.2c0.1-0.2,0.2-0.2,0.4-0.1c0.5,0.3,0.5,0.3,0.1,0.8c-0.1,0.1-0.3,0.2-0.3,0.3c0,0.1,0.2,0.2,0.3,0.3
						c0.3,0.3,0.5,0.6,0.6,1c0,0.1,0,0.2,0,0.3c0,0.2-0.1,0.3-0.4,0.2s-0.5-0.4-0.8-0.6C10,11.8,9.9,11.5,9.7,11.2z"/>
					<path id="Path_2_" class="st0" d="M12,7.4c0.2-0.7,0.5-1.3,0.7-1.9c0.1-0.1,0.1-0.2,0.3-0.2s0.4,0,0.7,0c0.1,0,0.1,0,0.1,0.1
						c0,1.1,0,2.2,0,3.3c0,0.1,0,0.1-0.1,0.1l0,0c-0.2,0-0.5,0.1-0.7,0c-0.2-0.1,0-0.4,0-0.7c0-0.4,0-0.9,0-1.3
						c-0.1,0.2-0.2,0.5-0.3,0.7c-0.1,0.3-0.2,0.5-0.3,0.8c0,0.1-0.1,0.2-0.3,0.2c-0.1,0-0.2,0-0.3-0.2c-0.2-0.5-0.4-1-0.6-1.5
						c0,0.6,0,1.1,0,1.7c0,0.2,0,0.2-0.2,0.2s-0.5,0.1-0.6-0.1c-0.1-0.1,0-0.4,0-0.6c0-0.9,0-1.8,0-2.7c0-0.2,0.1-0.2,0.2-0.2
						c0.3,0,0.6-0.1,0.7,0c0.2,0.1,0.2,0.4,0.3,0.7C11.6,6.5,11.8,6.9,12,7.4z"/>
					<path id="Path_3_" class="st0" d="M3.3,7.1c0,0.5,0,1.1,0,1.6c0,0.2,0,0.2-0.2,0.2c-0.2,0-0.4,0-0.6,0S2.3,8.8,2.3,8.7
						c0-0.4,0-0.7,0-1.1c0-0.1,0-0.2-0.2-0.2c-0.3,0-0.5,0-0.8,0c-0.1,0-0.2,0.1-0.2,0.2c0,0.4,0,0.7,0,1.1c0,0.1,0,0.2-0.2,0.2
						s-0.4,0-0.6,0c-0.1,0-0.2,0-0.2-0.2c0-1.1,0-2.2,0-3.3c0-0.1,0-0.2,0.2-0.2s0.4,0,0.6,0c0.1,0,0.2,0,0.2,0.2c0,0.3,0,0.6,0,1
						c0,0.2,0,0.2,0.2,0.2s0.5,0,0.7,0s0.2,0,0.2-0.2c0-0.3,0-0.6,0-1c0-0.1,0-0.2,0.2-0.2c0.2,0,0.4,0,0.5,0c0.2,0,0.2,0,0.2,0.2
						C3.3,6.1,3.3,6.6,3.3,7.1z"/>
					<path id="Path_4_" class="st0" d="M4.1,7.1c0-0.5,0-1.1,0-1.6c0-0.2,0-0.2,0.2-0.2c0.6,0,1.3,0,1.9,0c0.1,0,0.2,0,0.2,0.2
						c0,0.6,0,0.6-0.6,0.6c-0.2,0-0.4,0-0.6,0C5.1,6.1,5,6.1,5,6.3c0,0.4,0,0.4,0.4,0.4c0.2,0,0.3,0,0.5,0c0.3,0,0.3,0.1,0.3,0.3
						c0,0.5,0,0.5-0.5,0.5c-0.1,0-0.2,0-0.2,0C5,7.5,5,7.5,5,8c0,0.1,0,0.2,0.2,0.2c0.4,0,0.7,0,1.1,0c0.1,0,0.2,0,0.2,0.2
						C6.5,9,6.5,9,5.9,9c-0.5,0-1,0-1.5,0C4.2,9,4.1,9,4.1,8.7C4.1,8.1,4.1,7.6,4.1,7.1z"/>
					<path id="Path_5_" class="st0" d="M7.2,7.1c0-0.5,0-1.1,0-1.6c0-0.2,0-0.3,0.2-0.2c0.2,0,0.5-0.1,0.7,0.1c0.1,0.1,0,0.4,0,0.7
						c0,0.6,0,1.3,0,1.9c0,0.2,0,0.2,0.2,0.2c0.3,0,0.7,0,1,0c0.1,0,0.2,0,0.2,0.2C9.5,9,9.5,9,8.9,9c-0.5,0-1,0-1.5,0
						C7.2,9,7.2,8.9,7.2,8.8C7.2,8.2,7.2,7.7,7.2,7.1z"/>
				</g>
			</g>
		</g>
	</g>
</g>
</svg>

<?xml version="1.0" encoding="UTF-8"?>
<svg width="14px" height="14px" viewBox="0 0 14 14" version="1.1" xmlns="http://www.w3.org/2000/svg" xmlns:xlink="http://www.w3.org/1999/xlink">
    <!-- Generator: Sketch 59 (86127) - https://sketch.com -->
    <title>HDL/Icon/Standard/Service/helm</title>
    <desc>Created with Sketch.</desc>
    <g id="Colors" stroke="none" stroke-width="1" fill="none" fill-rule="evenodd">
        <g id="Service-icons" transform="translate(-122.000000, -969.000000)" fill="#277A9E">
            <g id="Helm" transform="translate(101.000000, 952.000000)">
                <g id="HDL/Icon/Standard/Service/helm" transform="translate(21.000000, 17.000000)">
                    <g id="Helm">
                        <path d="M7.5,1.3 C7.5,1.5 7.5,1.7 7.4,1.9 C7.4,2 7.4,2.1 7.5,2.1 C8.2,2.2 8.9,2.4 9.5,2.8 C9.6,2.9 9.7,2.8 9.7,2.7 C9.9,2.2 10.2,1.8 10.6,1.5 C10.8,1.4 10.9,1.2 11.1,1.4 C11.3,1.5 11.2,1.8 11.2,2 C11.1,2.5 10.8,2.9 10.4,3.2 C10.2,3.3 10.3,3.4 10.4,3.5 C10.7,3.7 10.9,4 11.1,4.3 C11.2,4.4 11.2,4.5 11,4.5 C10.8,4.6 10.7,4.8 10.5,4.8 C10.3,4.8 10.3,4.5 10.2,4.4 C8.5,2.3 5.2,2.3 3.5,4.6 C3.4,4.7 3.3,4.8 3.2,4.6 C3.2,4.6 3.2,4.6 3.2,4.6 C2.7,4.3 2.7,4.3 3,3.9 C3.1,3.7 3.3,3.6 3.5,3.4 C3.6,3.3 3.6,3.2 3.5,3.1 C3.2,2.8 2.9,2.4 2.8,1.9 C2.7,1.8 2.6,1.5 2.8,1.4 C3,1.3 3.2,1.4 3.3,1.5 C3.8,1.8 4,2.2 4.2,2.6 C4.3,2.7 4.3,2.8 4.5,2.7 C5.1,2.3 5.7,2.1 6.4,2.1 C6.6,2.1 6.6,2 6.6,1.9 C6.5,1.4 6.5,0.9 6.6,0.5 C6.7,0.3 6.8,0 7,0 C7.3,0 7.3,0.3 7.4,0.5 C7.5,0.7 7.5,1 7.5,1.3 Z" id="Path" fill-rule="nonzero"></path>
                        <path d="M9.7,11.2 C9,11.6 8.4,11.9 7.6,12 C7.4,12 7.4,12.1 7.5,12.2 C7.6,12.7 7.6,13.1 7.4,13.6 C7.3,13.8 7.2,14 7,14 C6.8,14 6.7,13.8 6.7,13.6 C6.5,13.2 6.5,12.7 6.6,12.2 C6.6,12 6.6,12 6.4,12 C5.7,11.9 5,11.7 4.5,11.4 C4.3,11.3 4.3,11.4 4.3,11.5 C4.1,11.9 3.8,12.3 3.5,12.5 C3.3,12.6 3.2,12.8 3,12.6 C2.8,12.5 2.9,12.2 2.9,12.1 C3,11.7 3.3,11.3 3.6,10.9 C3.7,10.8 3.7,10.7 3.6,10.6 C3.4,10.4 3.2,10.2 3.1,10 C2.8,9.9 2.9,9.9 3,9.8 C3.2,9.7 3.3,9.5 3.5,9.5 C3.7,9.5 3.8,9.7 3.9,9.9 C5.7,11.8 8.7,11.7 10.3,9.7 C10.4,9.5 10.5,9.5 10.7,9.6 C11.2,9.9 11.2,9.9 10.8,10.4 C10.7,10.5 10.5,10.6 10.5,10.7 C10.5,10.8 10.7,10.9 10.8,11 C11.1,11.3 11.3,11.6 11.4,12 C11.4,12.1 11.4,12.2 11.4,12.3 C11.4,12.5 11.3,12.6 11,12.5 C10.7,12.4 10.5,12.1 10.2,11.9 C10,11.8 9.9,11.5 9.7,11.2 Z" id="Path" fill-rule="nonzero"></path>
                        <path d="M12,7.4 C12.2,6.7 12.5,6.1 12.7,5.5 C12.8,5.4 12.8,5.3 13,5.3 C13.2,5.3 13.4,5.3 13.7,5.3 C13.8,5.3 13.8,5.3 13.8,5.4 C13.8,6.5 13.8,7.6 13.8,8.7 C13.8,8.8 13.8,8.8 13.7,8.8 C13.7,8.8 13.7,8.8 13.7,8.8 C13.5,8.8 13.2,8.9 13,8.8 C12.8,8.7 13,8.4 13,8.1 C13,7.7 13,7.2 13,6.8 C12.9,7 12.8,7.3 12.7,7.5 C12.6,7.8 12.5,8 12.4,8.3 C12.4,8.4 12.3,8.5 12.1,8.5 C12,8.5 11.9,8.5 11.8,8.3 C11.6,7.8 11.4,7.3 11.2,6.8 C11.2,7.4 11.2,7.9 11.2,8.5 C11.2,8.7 11.2,8.7 11,8.7 C10.8,8.7 10.5,8.8 10.4,8.6 C10.3,8.5 10.4,8.2 10.4,8 C10.4,7.1 10.4,6.2 10.4,5.3 C10.4,5.1 10.5,5.1 10.6,5.1 C10.9,5.1 11.2,5 11.3,5.1 C11.5,5.2 11.5,5.5 11.6,5.8 C11.6,6.5 11.8,6.9 12,7.4 Z" id="Path" fill-rule="nonzero"></path>
                        <path d="M3.3,7.1 C3.3,7.6 3.3,8.2 3.3,8.7 C3.3,8.9 3.3,8.9 3.1,8.9 C2.9,8.9 2.7,8.9 2.5,8.9 C2.3,8.9 2.3,8.8 2.3,8.7 C2.3,8.3 2.3,8 2.3,7.6 C2.3,7.5 2.3,7.4 2.1,7.4 C1.8,7.4 1.6,7.4 1.3,7.4 C1.2,7.4 1.1,7.5 1.1,7.6 C1.1,8 1.1,8.3 1.1,8.7 C1.1,8.8 1.1,8.9 0.9,8.9 C0.7,8.9 0.5,8.9 0.3,8.9 C0.2,8.9 0.1,8.9 0.1,8.7 C0.1,7.6 0.1,6.5 0.1,5.4 C0.1,5.3 0.1,5.2 0.3,5.2 C0.5,5.2 0.7,5.2 0.9,5.2 C1,5.2 1.1,5.2 1.1,5.4 C1.1,5.7 1.1,6 1.1,6.4 C1.1,6.6 1.1,6.6 1.3,6.6 C1.5,6.6 1.8,6.6 2,6.6 C2.2,6.6 2.2,6.6 2.2,6.4 C2.2,6.1 2.2,5.8 2.2,5.4 C2.2,5.3 2.2,5.2 2.4,5.2 C2.6,5.2 2.8,5.2 2.9,5.2 C3.1,5.2 3.1,5.2 3.1,5.4 C3.3,6.1 3.3,6.6 3.3,7.1 Z" id="Path" fill-rule="nonzero"></path>
                        <path d="M4.1,7.1 C4.1,6.6 4.1,6 4.1,5.5 C4.1,5.3 4.1,5.3 4.3,5.3 C4.9,5.3 5.6,5.3 6.2,5.3 C6.3,5.3 6.4,5.3 6.4,5.5 C6.4,6.1 6.4,6.1 5.8,6.1 C5.6,6.1 5.4,6.1 5.2,6.1 C5.1,6.1 5,6.1 5,6.3 C5,6.7 5,6.7 5.4,6.7 C5.6,6.7 5.7,6.7 5.9,6.7 C6.2,6.7 6.2,6.8 6.2,7 C6.2,7.5 6.2,7.5 5.7,7.5 C5.6,7.5 5.5,7.5 5.5,7.5 C5,7.5 5,7.5 5,8 C5,8.1 5,8.2 5.2,8.2 C5.6,8.2 5.9,8.2 6.3,8.2 C6.4,8.2 6.5,8.2 6.5,8.4 C6.5,9 6.5,9 5.9,9 C5.4,9 4.9,9 4.4,9 C4.2,9 4.1,9 4.1,8.7 C4.1,8.1 4.1,7.6 4.1,7.1 Z" id="Path" fill-rule="nonzero"></path>
                        <path d="M7.2,7.1 C7.2,6.6 7.2,6 7.2,5.5 C7.2,5.3 7.2,5.2 7.4,5.3 C7.6,5.3 7.9,5.2 8.1,5.4 C8.2,5.5 8.1,5.8 8.1,6.1 C8.1,6.7 8.1,7.4 8.1,8 C8.1,8.2 8.1,8.2 8.3,8.2 C8.6,8.2 9,8.2 9.3,8.2 C9.4,8.2 9.5,8.2 9.5,8.4 C9.5,9 9.5,9 8.9,9 C8.4,9 7.9,9 7.4,9 C7.2,9 7.2,8.9 7.2,8.8 C7.2,8.2 7.2,7.7 7.2,7.1 Z" id="Path" fill-rule="nonzero"></path>
                    </g>
                </g>
            </g>
        </g>
    </g>
</svg>
